vendor/shopware/storefront/Resources/app/storefront/dist/assets/icon/default/shield.svg

<svg xmlns="http://www.w3.org/2000/svg" width="24" height="24" viewBox="0 0 24 24">
  <path fill="#758CA3" fill-rule="evenodd" d="M4,12.8347555 C4,14.7926383 4.95526587,16.627375 6.55922593,17.750147 L12,21.5586889 L17.4407741,17.750147 C19.0447341,16.627375 20,14.7926383 20,12.8347555 L20,3.39283623 C14.8122716,1.63462254 9.18772838,1.63462254 4,3.39283623 L4,12.8347555 Z M22,2 L22,12.8347555 C22,15.4452659 20.7263122,17.8915815 18.5876988,19.3886109 L12.5734623,23.5985764 C12.2291422,23.8396005 11.7708578,23.8396005 11.4265377,23.5985764 L5.41230125,19.3886109 C3.27368782,17.8915815 2,15.4452659 2,12.8347555 L2,2 C8.41941345,-0.567765381 15.5805865,-0.567765381 22,2 Z"/>
</svg>

<svg xmlns="http://www.w3.org/2000/svg" width="24" height="24" viewBox="0 0 24 24"><path fill="#758CA3" fill-rule="evenodd" d="M4 12.8348A6 6 0 0 0 6.5592 17.75L12 21.5587l5.4408-3.8086A6 6 0 0 0 20 12.8348v-9.442a24.9264 24.9264 0 0 0-16 0v9.442zM22 2v10.8348a8 8 0 0 1-3.4123 6.5538l-6.0142 4.21a1 1 0 0 1-1.147 0l-6.0142-4.21A8 8 0 0 1 2 12.8348V2a26.9258 26.9258 0 0 1 20 0z"/></svg>
